!!!SOCIAL_FUNCTION:	rain dance song
!!!PDT:	1957
!!!OTL: No_71_The_Raingods_Speak.krn
!!!LING_GROUP: Keresan
!!!LANG: Tone
!!!REG: Southwest
**kern
*staff1
=1-
*clefF4
*k[b-e-a-d-]
*M3/4
2r
8.r
16A-\
=2
2B-\
8A-\L
24B-\K
12A-\J
=3
2F\
8.r
16A-\
=4
2B-\
8A-\L
24B-\K
12A-\J
=5
2F\
4r
=6
*M2/4
8.A-\L
16A-\Jk
8B-\L
16A-\L
16A-\JJ
=7
8F/L
8C/J
8C/L
16F/L
16C/JJ
=8
*M3/8
8F/L
8C/
8BB-/J
=9
*M2/4
8AA-/L
8AA-/J
16C/LL
16AA-/J
8AA-/J
=10
*M3/8
8C/L
16BB-/L
16BB-/
16.AA-/
32FF/JJk
=11
*M3/4
8AA-/L
16FF/L
16AA-/JJ
8FF/L
8FF/J
4r
=12
*M2/4
16C/LL
16AA-/J
8AA-/J
8AA-/L
8AA-/J
=13
8AA-/L
16FF/L
16FF/JJ
8FF/
8r
==
*-
